src/epub/images/titlepage.svg

<?xml version="1.0" encoding="utf-8"?>
<svg xmlns="http://www.w3.org/2000/svg" xmlns:svg="http://www.w3.org/2000/svg" version="1.1" viewBox="0 0 1400 340">
	<title>The titlepage for the Standard Ebooks edition of Bleak House, by Charles Dickens</title>
	<g>
		<path d="m 340.24488,52.807016 0,77.192984 29.28655,0 c 16,0 25.26316,-8.79532 25.26316,-21.52047 0,-12.444443 -6.83041,-17.777776 -16.46784,-19.461987 6.54971,-3.368421 9.63743,-9.450292 9.63743,-16.561404 0,-14.690058 -10.47954,-19.649123 -23.76609,-19.649123 l -23.95321,0 z m 17.59064,30.222223 0,-16.654971 1.40351,0 c 7.67251,0 11.69591,2.339181 11.69591,7.859649 0,6.456141 -4.11696,8.795322 -11.69591,8.795322 l -1.40351,0 z m 0,33.403511 0,-18.245616 5.52047,0 c 8.32748,0 12.91228,2.526316 12.91228,9.637426 0,6.08187 -4.5848,8.60819 -12.91228,8.60819 l -5.52047,0 z"/>
		<path d="m 425.15277,52.807016 -17.59064,0 0,77.192984 44.16374,0 0,-15.4386 -26.5731,0 0,-61.754384 z"/>
		<path d="m 509.5402,52.807016 -44.16375,0 0,77.192984 44.16375,0 0,-15.4386 -26.5731,0 0,-15.532161 25.45029,0 0,-15.438597 -25.45029,0 0,-15.345029 26.5731,0 0,-15.438597 z"/>
		<path d="m 564.4057,52.807016 -16.2807,0 L 516.96711,130 l 18.90058,0 5.7076,-15.4386 29.38012,0 5.7076,15.4386 18.90059,0 -31.1579,-77.192984 z m 0.56141,46.31579 -17.40351,0 8.60818,-22.45614 0.18714,0 8.60819,22.45614 z"/>
		<path d="m 673.7522,130 -35.92983,-40.608188 31.06433,-36.584796 -21.33333,0 -26.47954,31.532164 0,-31.532164 -17.59064,0 0,77.192984 17.59064,0 0,-32.748539 L 649.51828,130 l 24.23392,0 z"/>
		<path d="m 730.30628,99.029239 24.88889,0 0,30.970761 17.59065,0 0,-77.192984 -17.59065,0 0,30.783626 -24.88889,0 0,-30.783626 -17.59064,0 0,77.192984 17.59064,0 0,-30.970761 z"/>
		<path d="m 785.5256,91.356724 c 0,22.549706 16.09356,40.046786 38.92397,40.046786 22.17544,0 38.83041,-17.49708 38.83041,-40.046786 0,-22.549708 -17.40351,-39.953217 -38.83041,-39.953217 -21.23976,0 -38.92397,17.403509 -38.92397,39.953217 z m 18.99415,0 c 0,-11.508772 6.36257,-23.017544 19.92982,-23.017544 13.66082,0 19.83626,11.508772 19.83626,23.017544 0,11.508776 -5.80117,23.017546 -19.83626,23.017546 -14.40935,0 -19.92982,-11.50877 -19.92982,-23.017546 z"/>
		<path d="m 935.36333,52.807016 -17.59064,0 0,44.63158 c 0,12.912284 -3.92983,16.654974 -12.53802,16.654974 -8.60818,0 -12.53801,-3.74269 -12.53801,-16.654974 l 0,-44.63158 -17.59064,0 0,49.777774 c 0,19.08772 10.47953,28.81872 30.12865,28.81872 19.64913,0 30.12866,-9.731 30.12866,-28.81872 l 0,-49.777774 z"/>
		<path d="m 977.28582,51.403507 c -12.44445,0 -25.16959,9.169591 -25.16959,23.578948 0,8.046784 5.4269,15.251462 14.69006,19.836258 9.16959,4.584795 17.40351,7.111107 17.40351,12.725147 0,7.20468 -7.29825,7.57895 -11.13451,7.57895 -8.60819,0 -18.90058,-8.70176 -18.90058,-8.70176 l -8.79532,14.78363 c 0,0 10.94736,10.19883 29.00584,10.19883 15.06433,0 29.09937,-6.45614 29.09937,-24.88889 0,-10.105264 -9.45024,-17.40351 -18.05843,-21.052632 -8.79532,-3.742691 -16.09357,-6.83041 -16.09357,-11.134504 0,-4.210526 3.18129,-6.923976 9.16959,-6.923976 7.95322,0 15.62573,5.333333 15.62573,5.333333 l 7.11108,-14.035088 c 0,0 -9.91809,-7.298246 -23.95318,-7.298246 z"/>
		<path d="m 1060.8706,52.807016 -44.1637,0 0,77.192984 44.1637,0 0,-15.4386 -26.5731,0 0,-15.532161 25.4503,0 0,-15.438597 -25.4503,0 0,-15.345029 26.5731,0 0,-15.438597 z"/>
	</g>
	<g>
		<path d="m 358.94024,278.07018 c -13.26315,0 -19.08771,-9.26316 -19.08771,-17.05264 0,-7.71929 5.82456,-16.98245 19.08771,-16.98245 6.73685,0 11.36843,3.57895 11.36843,3.57895 l 5.61403,-11.22807 c 0,0 -6.45614,-5.33334 -19.01754,-5.33334 -16.42106,0 -31.36842,13.47369 -31.36842,30.10527 0,16.5614 15.01754,29.89473 31.36842,29.89473 12.5614,0 19.01754,-5.33333 19.01754,-5.33333 l -5.61403,-11.22807 c 0,0 -4.63158,3.57895 -11.36843,3.57895 z"/>
		<path d="m 399.23191,266.77193 18.66667,0 0,23.22807 13.19298,0 0,-57.89474 -13.19298,0 0,23.08772 -18.66667,0 0,-23.08772 -13.19298,0 0,57.89474 13.19298,0 0,-23.22807 z"/>
		<path d="m 473.89639,232.10526 -12.21053,0 L 438.31744,290 l 14.17544,0 4.2807,-11.57895 22.03509,0 4.2807,11.57895 14.17544,0 -23.36842,-57.89474 z m 0.42105,34.73685 -13.05263,0 6.45614,-16.84211 0.14035,0 6.45614,16.84211 z"/>
		<path d="m 504.4545,232.10526 0,57.89474 13.19298,0 0,-22.87719 17.68421,22.87719 16.77193,0 -19.92982,-23.92982 c 7.08772,-2.24562 11.85965,-8.07018 11.85965,-16.77193 0,-11.36842 -8.14035,-17.19299 -18.8772,-17.19299 l -20.70175,0 z m 13.19298,25.68421 0,-15.15789 1.54386,0 c 4.98246,0 10.94737,0.35088 10.94737,7.57895 0,7.22807 -5.96491,7.57894 -10.94737,7.57894 l -1.54386,0 z"/>
		<path d="m 572.94901,232.10526 -13.19298,0 0,57.89474 33.12281,0 0,-11.57895 -19.92983,0 0,-46.31579 z"/>
		<path d="m 637.48958,232.10526 -33.1228,0 0,57.89474 33.1228,0 0,-11.57895 -19.92982,0 0,-11.64912 19.08772,0 0,-11.57895 -19.08772,0 0,-11.50877 19.92982,0 0,-11.57895 z"/>
		<path d="m 671.40736,231.05263 c -9.33334,0 -18.8772,6.8772 -18.8772,17.68421 0,6.03509 4.07018,11.4386 11.01755,14.8772 6.87719,3.43859 13.05263,5.33333 13.05263,9.54385 0,5.40351 -5.47369,5.68422 -8.35088,5.68422 -6.45614,0 -14.17544,-6.52632 -14.17544,-6.52632 l -6.59649,11.08772 c 0,0 8.21053,7.64912 21.75439,7.64912 11.29824,0 21.82456,-4.8421 21.82456,-18.66666 0,-7.57895 -7.08772,-13.05264 -13.54386,-15.78948 -6.59649,-2.80702 -12.07018,-5.12281 -12.07018,-8.35088 0,-3.15789 2.38597,-5.19298 6.8772,-5.19298 5.96491,0 11.71929,4 11.71929,4 l 5.33334,-10.52631 c 0,0 -7.4386,-5.47369 -17.96491,-5.47369 z"/>
		<path d="m 726.41173,232.10526 0,57.89474 16.77193,0 c 15.92982,0 29.19298,-12.07018 29.19298,-28.98246 0,-16.8421 -13.33333,-28.91228 -29.19298,-28.91228 l -16.77193,0 z m 13.19298,46.10527 0,-34.31579 2.03509,0 c 9.82456,0 16.49123,7.50877 16.49123,17.19298 -0.0702,9.68421 -6.73684,17.12281 -16.49123,17.12281 l -2.03509,0 z"/>
		<path d="m 796.41392,232.10526 -13.19299,0 0,57.89474 13.19299,0 0,-57.89474 z"/>
		<path d="m 838.49069,278.07018 c -13.26316,0 -19.08772,-9.26316 -19.08772,-17.05264 0,-7.71929 5.82456,-16.98245 19.08772,-16.98245 6.73684,0 11.36842,3.57895 11.36842,3.57895 l 5.61404,-11.22807 c 0,0 -6.45614,-5.33334 -19.01755,-5.33334 -16.42105,0 -31.36842,13.47369 -31.36842,30.10527 0,16.5614 15.01754,29.89473 31.36842,29.89473 12.56141,0 19.01755,-5.33333 19.01755,-5.33333 l -5.61404,-11.22807 c 0,0 -4.63158,3.57895 -11.36842,3.57895 z"/>
		<path d="m 918.2911,290 -26.94737,-30.45614 23.29824,-27.4386 -16,0 -19.85965,23.64913 0,-23.64913 -13.19298,0 0,57.89474 13.19298,0 0,-24.5614 21.33334,24.5614 18.17544,0 z"/>
		<path d="m 958.94793,232.10526 -33.12281,0 0,57.89474 33.12281,0 0,-11.57895 -19.92983,0 0,-11.64912 19.08772,0 0,-11.57895 -19.08772,0 0,-11.50877 19.92983,0 0,-11.57895 z"/>
		<path d="m 984.72532,254.07018 0.14035,0 23.01753,35.92982 13.193,0 0,-57.89474 -13.193,0 0,35.92983 -0.1403,0 -23.01758,-35.92983 -13.19298,0 0,57.89474 13.19298,0 0,-35.92982 z"/>
		<path d="m 1054.4721,231.05263 c -9.3334,0 -18.8772,6.8772 -18.8772,17.68421 0,6.03509 4.0701,11.4386 11.0175,14.8772 6.8772,3.43859 13.0526,5.33333 13.0526,9.54385 0,5.40351 -5.4736,5.68422 -8.3508,5.68422 -6.4562,0 -14.1755,-6.52632 -14.1755,-6.52632 l -6.5965,11.08772 c 0,0 8.2106,7.64912 21.7544,7.64912 11.2983,0 21.8246,-4.8421 21.8246,-18.66666 0,-7.57895 -7.0877,-13.05264 -13.5439,-15.78948 -6.5965,-2.80702 -12.0702,-5.12281 -12.0702,-8.35088 0,-3.15789 2.386,-5.19298 6.8772,-5.19298 5.9649,0 11.7193,4 11.7193,4 l 5.3334,-10.52631 c 0,0 -7.4386,-5.47369 -17.9649,-5.47369 z"/>
	</g>
</svg>

<?xml version="1.0" encoding="utf-8"?>
<svg xmlns="http://www.w3.org/2000/svg" xmlns:svg="http://www.w3.org/2000/svg" version="1.1" viewBox="0 0 1400 340">
	<title>The titlepage for the Standard Ebooks edition of Bleak House, by Charles Dickens</title>
	<g aria-label="BLEAK HOUSE">
		<path d="M 340.24488,52.807016 V 130 h 29.28655 c 16,0 25.26316,-8.79532 25.26316,-21.52047 0,-12.444443 -6.83041,-17.777776 -16.46784,-19.461987 6.54971,-3.368421 9.63743,-9.450292 9.63743,-16.561404 0,-14.690058 -10.47954,-19.649123 -23.76609,-19.649123 z m 17.59064,30.222223 V 66.374268 h 1.40351 c 7.67251,0 11.69591,2.339181 11.69591,7.859649 0,6.456141 -4.11696,8.795322 -11.69591,8.795322 z m 0,33.403511 V 98.187134 h 5.52047 c 8.32748,0 12.91228,2.526316 12.91228,9.637426 0,6.08187 -4.5848,8.60819 -12.91228,8.60819 z"/>
		<path d="M 425.15277,52.807016 H 407.56213 V 130 h 44.16374 v -15.4386 h -26.5731 z"/>
		<path d="M 509.5402,52.807016 H 465.37645 V 130 H 509.5402 V 114.5614 H 482.9671 V 99.029239 h 25.45029 V 83.590642 H 482.9671 V 68.245613 h 26.5731 z"/>
		<path d="M 564.4057,52.807016 H 548.125 L 516.96711,130 h 18.90058 l 5.7076,-15.4386 h 29.38012 L 576.66301,130 h 18.90059 z m 0.56141,46.31579 H 547.5636 l 8.60818,-22.45614 h 0.18714 z"/>
		<path d="M 673.7522,130 637.82237,89.391812 668.8867,52.807016 H 647.55337 L 621.07383,84.33918 V 52.807016 H 603.48319 V 130 h 17.59064 V 97.251461 L 649.51828,130 Z"/>
		<path d="m 730.30628,99.029239 h 24.88889 V 130 h 17.59065 V 52.807016 H 755.19517 V 83.590642 H 730.30628 V 52.807016 H 712.71564 V 130 h 17.59064 z"/>
		<path d="m 785.5256,91.356724 c 0,22.549706 16.09356,40.046786 38.92397,40.046786 22.17544,0 38.83041,-17.49708 38.83041,-40.046786 0,-22.549708 -17.40351,-39.953217 -38.83041,-39.953217 -21.23976,0 -38.92397,17.403509 -38.92397,39.953217 z m 18.99415,0 c 0,-11.508772 6.36257,-23.017544 19.92982,-23.017544 13.66082,0 19.83626,11.508772 19.83626,23.017544 0,11.508776 -5.80117,23.017546 -19.83626,23.017546 -14.40935,0 -19.92982,-11.50877 -19.92982,-23.017546 z"/>
		<path d="m 935.36333,52.807016 h -17.59064 v 44.63158 c 0,12.912284 -3.92983,16.654974 -12.53802,16.654974 -8.60818,0 -12.53801,-3.74269 -12.53801,-16.654974 v -44.63158 h -17.59064 v 49.777774 c 0,19.08772 10.47953,28.81872 30.12865,28.81872 19.64913,0 30.12866,-9.731 30.12866,-28.81872 z"/>
		<path d="m 977.28582,51.403507 c -12.44445,0 -25.16959,9.169591 -25.16959,23.578948 0,8.046784 5.4269,15.251462 14.69006,19.836258 9.16959,4.584795 17.40351,7.111107 17.40351,12.725147 0,7.20468 -7.29825,7.57895 -11.13451,7.57895 -8.60819,0 -18.90058,-8.70176 -18.90058,-8.70176 l -8.79532,14.78363 c 0,0 10.94736,10.19883 29.00584,10.19883 15.06433,0 29.09937,-6.45614 29.09937,-24.88889 0,-10.105264 -9.45024,-17.40351 -18.05843,-21.052632 -8.79532,-3.742691 -16.09357,-6.83041 -16.09357,-11.134504 0,-4.210526 3.18129,-6.923976 9.16959,-6.923976 7.95322,0 15.62573,5.333333 15.62573,5.333333 l 7.11108,-14.035088 c 0,0 -9.91809,-7.298246 -23.95318,-7.298246 z"/>
		<path d="m 1060.8706,52.807016 h -44.1637 V 130 h 44.1637 v -15.4386 h -26.5731 V 99.029239 h 25.4503 V 83.590642 h -25.4503 V 68.245613 h 26.5731 z"/>
	</g>
	<g aria-label="CHARLES DICKENS">
		<path d="m 358.94024,278.07018 c -13.26315,0 -19.08771,-9.26316 -19.08771,-17.05264 0,-7.71929 5.82456,-16.98245 19.08771,-16.98245 6.73685,0 11.36843,3.57895 11.36843,3.57895 l 5.61403,-11.22807 c 0,0 -6.45614,-5.33334 -19.01754,-5.33334 -16.42106,0 -31.36842,13.47369 -31.36842,30.10527 0,16.5614 15.01754,29.89473 31.36842,29.89473 12.5614,0 19.01754,-5.33333 19.01754,-5.33333 l -5.61403,-11.22807 c 0,0 -4.63158,3.57895 -11.36843,3.57895 z"/>
		<path d="m 399.23191,266.77193 h 18.66667 V 290 h 13.19298 v -57.89474 h -13.19298 v 23.08772 H 399.23191 V 232.10526 H 386.03893 V 290 h 13.19298 z"/>
		<path d="M 473.89639,232.10526 H 461.68586 L 438.31744,290 h 14.17544 l 4.2807,-11.57895 h 22.03509 L 483.08937,290 h 14.17544 z m 0.42105,34.73685 H 461.26481 L 467.72095,250 h 0.14035 z"/>
		<path d="M 504.4545,232.10526 V 290 h 13.19298 V 267.12281 L 535.33169,290 h 16.77193 L 532.1738,266.07018 c 7.08772,-2.24562 11.85965,-8.07018 11.85965,-16.77193 0,-11.36842 -8.14035,-17.19299 -18.8772,-17.19299 z m 13.19298,25.68421 v -15.15789 h 1.54386 c 4.98246,0 10.94737,0.35088 10.94737,7.57895 0,7.22807 -5.96491,7.57894 -10.94737,7.57894 z"/>
		<path d="M 572.94901,232.10526 H 559.75603 V 290 h 33.12281 v -11.57895 h -19.92983 z"/>
		<path d="m 637.48958,232.10526 h -33.1228 V 290 h 33.1228 v -11.57895 h -19.92982 v -11.64912 h 19.08772 v -11.57895 h -19.08772 v -11.50877 h 19.92982 z"/>
		<path d="m 671.40736,231.05263 c -9.33334,0 -18.8772,6.8772 -18.8772,17.68421 0,6.03509 4.07018,11.4386 11.01755,14.8772 6.87719,3.43859 13.05263,5.33333 13.05263,9.54385 0,5.40351 -5.47369,5.68422 -8.35088,5.68422 -6.45614,0 -14.17544,-6.52632 -14.17544,-6.52632 l -6.59649,11.08772 c 0,0 8.21053,7.64912 21.75439,7.64912 11.29824,0 21.82456,-4.8421 21.82456,-18.66666 0,-7.57895 -7.08772,-13.05264 -13.54386,-15.78948 -6.59649,-2.80702 -12.07018,-5.12281 -12.07018,-8.35088 0,-3.15789 2.38597,-5.19298 6.8772,-5.19298 5.96491,0 11.71929,4 11.71929,4 l 5.33334,-10.52631 c 0,0 -7.4386,-5.47369 -17.96491,-5.47369 z"/>
		<path d="M 726.41173,232.10526 V 290 h 16.77193 c 15.92982,0 29.19298,-12.07018 29.19298,-28.98246 0,-16.8421 -13.33333,-28.91228 -29.19298,-28.91228 z m 13.19298,46.10527 v -34.31579 h 2.03509 c 9.82456,0 16.49123,7.50877 16.49123,17.19298 -0.0702,9.68421 -6.73684,17.12281 -16.49123,17.12281 z"/>
		<path d="M 796.41392,232.10526 H 783.22093 V 290 h 13.19299 z"/>
		<path d="m 838.49069,278.07018 c -13.26316,0 -19.08772,-9.26316 -19.08772,-17.05264 0,-7.71929 5.82456,-16.98245 19.08772,-16.98245 6.73684,0 11.36842,3.57895 11.36842,3.57895 l 5.61404,-11.22807 c 0,0 -6.45614,-5.33334 -19.01755,-5.33334 -16.42105,0 -31.36842,13.47369 -31.36842,30.10527 0,16.5614 15.01754,29.89473 31.36842,29.89473 12.56141,0 19.01755,-5.33333 19.01755,-5.33333 l -5.61404,-11.22807 c 0,0 -4.63158,3.57895 -11.36842,3.57895 z"/>
		<path d="m 918.2911,290 -26.94737,-30.45614 23.29824,-27.4386 h -16 l -19.85965,23.64913 V 232.10526 H 865.58934 V 290 h 13.19298 V 265.4386 L 900.11566,290 Z"/>
		<path d="M 958.94793,232.10526 H 925.82512 V 290 h 33.12281 V 278.42105 H 939.0181 v -11.64912 h 19.08772 V 255.19298 H 939.0181 v -11.50877 h 19.92983 z"/>
		<path d="m 984.72532,254.07018 h 0.14035 L 1007.8832,290 h 13.193 v -57.89474 h -13.193 v 35.92983 h -0.1403 L 984.72532,232.10526 H 971.53234 V 290 h 13.19298 z"/>
		<path d="m 1054.4721,231.05263 c -9.3334,0 -18.8772,6.8772 -18.8772,17.68421 0,6.03509 4.0701,11.4386 11.0175,14.8772 6.8772,3.43859 13.0526,5.33333 13.0526,9.54385 0,5.40351 -5.4736,5.68422 -8.3508,5.68422 -6.4562,0 -14.1755,-6.52632 -14.1755,-6.52632 l -6.5965,11.08772 c 0,0 8.2106,7.64912 21.7544,7.64912 11.2983,0 21.8246,-4.8421 21.8246,-18.66666 0,-7.57895 -7.0877,-13.05264 -13.5439,-15.78948 -6.5965,-2.80702 -12.0702,-5.12281 -12.0702,-8.35088 0,-3.15789 2.386,-5.19298 6.8772,-5.19298 5.9649,0 11.7193,4 11.7193,4 l 5.3334,-10.52631 c 0,0 -7.4386,-5.47369 -17.9649,-5.47369 z"/>
	</g>
</svg>
